packages/synapse-interface/assets/icons/fusdt.svg

<svg fill="none" height="478" viewBox="0 0 601 478" width="601" xmlns="http://www.w3.org/2000/svg" xmlns:xlink="http://www.w3.org/1999/xlink"><filter id="a" color-interpolation-filters="sRGB" filterUnits="userSpaceOnUse" height="708" width="708" x="-54" y="-29"><feFlood flood-opacity="0" result="BackgroundImageFix"/><feBlend in="SourceGraphic" in2="BackgroundImageFix" mode="normal" result="shape"/><feGaussianBlur result="effect1_foregroundBlur" stdDeviation="65"/></filter><mask id="b" height="478" maskUnits="userSpaceOnUse" width="601" x="0" y="0"><path d="m0 0h601v478h-601z" fill="#c4c4c4"/></mask><g mask="url(#b)"><ellipse cx="299.5" cy="349" fill="#3f0" rx="299.5" ry="336"/><g filter="url(#a)"><circle cx="300" cy="325" fill="#58c182" r="224"/></g></g><path d="m457.5 381.5c0 7.599-4.264 14.904-12.123 21.612-7.857 6.706-19.256 12.768-33.385 17.869-28.253 10.2-67.318 16.519-110.492 16.519s-82.239-6.319-110.492-16.519c-14.129-5.101-25.528-11.163-33.385-17.869-7.859-6.708-12.123-14.013-12.123-21.612s4.264-14.904 12.123-21.612c7.857-6.706 19.256-12.768 33.385-17.869 28.253-10.2 67.318-16.519 110.492-16.519s82.239 6.319 110.492 16.519c14.129 5.101 25.528 11.163 33.385 17.869 7.859 6.708 12.123 14.013 12.123 21.612z" stroke="#141413"/><path d="m405.5 381.5c0 4.974-2.808 9.78-8.036 14.215-5.225 4.434-12.816 8.449-22.24 11.831-18.844 6.762-44.909 10.954-73.724 10.954s-54.88-4.192-73.724-10.954c-9.424-3.382-17.015-7.397-22.24-11.831-5.228-4.435-8.036-9.241-8.036-14.215s2.808-9.78 8.036-14.215c5.225-4.434 12.816-8.449 22.24-11.831 18.844-6.762 44.909-10.954 73.724-10.954s54.88 4.192 73.724 10.954c9.424 3.382 17.015 7.397 22.24 11.831 5.228 4.435 8.036 9.241 8.036 14.215z" stroke="#141413"/><circle cx="301.5" cy="267.5" fill="#141413" r="128.5"/><circle cx="301.5" cy="267.5" fill="#2d2d2d" r="111.5"/><g clip-rule="evenodd" fill="#3f0" fill-rule="evenodd"><path d="m259.842 212.961h73.776c5.797 0 10.54 4.742 10.54 10.539s-4.743 10.539-10.54 10.539h-73.776zm4.216 16.863h69.56c3.469 0 6.324-2.856 6.324-6.324s-2.855-6.324-6.324-6.324h-69.56z"/><path d="m276.705 276.344c0-2.345 1.888-4.245 4.216-4.245h21.079c3.468 0 6.324-2.875 6.324-6.368 0-3.492-2.856-6.368-6.324-6.368h-37.942v53.064c0 3.492 2.855 6.367 6.324 6.367 3.468 0 6.323-2.875 6.323-6.367zm4.216 0h21.079c5.797 0 10.539-4.776 10.539-10.613s-4.742-10.613-10.539-10.613h-42.158v57.309c0 5.837 4.743 10.612 10.54 10.612 5.796 0 10.539-4.775 10.539-10.612z"/><path d="m391 268c0 49.153-39.847 89-89 89s-89-39.847-89-89 39.847-89 89-89 89 39.847 89 89zm-89 84.762c46.813 0 84.762-37.949 84.762-84.762s-37.949-84.762-84.762-84.762-84.762 37.949-84.762 84.762 37.949 84.762 84.762 84.762z"/></g></svg>

<svg width="601" height="478" viewBox="0 0 601 478" fill="none" xmlns="http://www.w3.org/2000/svg">
<mask id="mask0" mask-type="alpha" maskUnits="userSpaceOnUse" x="0" y="0" width="601" height="478">
<rect width="601" height="478" fill="#C4C4C4"/>
</mask>
<g mask="url(#mask0)">
<ellipse cx="299.5" cy="349" rx="299.5" ry="336" fill="#33FF00"/>
<g filter="url(#filter0_f)">
<circle cx="300" cy="325" r="224" fill="#58C182"/>
</g>
</g>
<path d="M457.5 381.5C457.5 389.099 453.236 396.404 445.377 403.112C437.52 409.818 426.121 415.88 411.992 420.981C383.739 431.181 344.674 437.5 301.5 437.5C258.326 437.5 219.261 431.181 191.008 420.981C176.879 415.88 165.48 409.818 157.623 403.112C149.764 396.404 145.5 389.099 145.5 381.5C145.5 373.901 149.764 366.596 157.623 359.888C165.48 353.182 176.879 347.12 191.008 342.019C219.261 331.819 258.326 325.5 301.5 325.5C344.674 325.5 383.739 331.819 411.992 342.019C426.121 347.12 437.52 353.182 445.377 359.888C453.236 366.596 457.5 373.901 457.5 381.5Z" stroke="#141413"/>
<path d="M405.5 381.5C405.5 386.474 402.692 391.28 397.464 395.715C392.239 400.149 384.648 404.164 375.224 407.546C356.38 414.308 330.315 418.5 301.5 418.5C272.685 418.5 246.62 414.308 227.776 407.546C218.352 404.164 210.761 400.149 205.536 395.715C200.308 391.28 197.5 386.474 197.5 381.5C197.5 376.526 200.308 371.72 205.536 367.285C210.761 362.851 218.352 358.836 227.776 355.454C246.62 348.692 272.685 344.5 301.5 344.5C330.315 344.5 356.38 348.692 375.224 355.454C384.648 358.836 392.239 362.851 397.464 367.285C402.692 371.72 405.5 376.526 405.5 381.5Z" stroke="#141413"/>
<circle cx="301.5" cy="267.5" r="128.5" fill="#141413"/>
<circle cx="301.5" cy="267.5" r="111.5" fill="#2D2D2D"/>
<path fill-rule="evenodd" clip-rule="evenodd" d="M259.842 212.961H333.618C339.415 212.961 344.158 217.703 344.158 223.5C344.158 229.297 339.415 234.039 333.618 234.039H259.842V212.961ZM264.058 229.824H333.618C337.087 229.824 339.942 226.968 339.942 223.5C339.942 220.032 337.087 217.176 333.618 217.176H264.058V229.824Z" fill="#33FF00"/>
<path fill-rule="evenodd" clip-rule="evenodd" d="M276.705 276.344C276.705 273.999 278.593 272.099 280.921 272.099H302C305.468 272.099 308.324 269.224 308.324 265.731C308.324 262.239 305.468 259.363 302 259.363H264.058V312.427C264.058 315.919 266.913 318.794 270.382 318.794C273.85 318.794 276.705 315.919 276.705 312.427V276.344ZM280.921 276.344H302C307.797 276.344 312.539 271.568 312.539 265.731C312.539 259.894 307.797 255.118 302 255.118H259.842V312.427C259.842 318.264 264.585 323.039 270.382 323.039C276.178 323.039 280.921 318.264 280.921 312.427V276.344Z" fill="#33FF00"/>
<path fill-rule="evenodd" clip-rule="evenodd" d="M391 268C391 317.153 351.153 357 302 357C252.847 357 213 317.153 213 268C213 218.847 252.847 179 302 179C351.153 179 391 218.847 391 268ZM302 352.762C348.813 352.762 386.762 314.813 386.762 268C386.762 221.187 348.813 183.238 302 183.238C255.187 183.238 217.238 221.187 217.238 268C217.238 314.813 255.187 352.762 302 352.762Z" fill="#33FF00"/>
<defs>
<filter id="filter0_f" x="-54" y="-29" width="708" height="708" filterUnits="userSpaceOnUse" color-interpolation-filters="sRGB">
<feFlood flood-opacity="0" result="BackgroundImageFix"/>
<feBlend mode="normal" in="SourceGraphic" in2="BackgroundImageFix" result="shape"/>
<feGaussianBlur stdDeviation="65" result="effect1_foregroundBlur"/>
</filter>
</defs>
</svg>
